X:93
M:2/4
L:1/8
K:D
e | fa a2 | fb ba | fa ef | dB Bd | 
fa a2 | fb ba | fa ef | d2 d :|| 

